rospo-icon-theme-classic-common/64x64/places/folder-violet-visiting.svg

<svg height="64" width="64" xmlns="http://www.w3.org/2000/svg"><rect height="32" opacity=".2" rx="2.5" width="50" x="7" y="24"/><path d="m7 44.5c0 1.385 1.115 2.5 2.5 2.5h45c1.385 0 2.5-1.115 2.5-2.5v-27c0-1.385-1.115-2.5-2.5-2.5h-25.5v-2.5c0-1.385-1.115-2.5-2.5-2.5h-17c-1.385 0-2.5 1.115-2.5 2.5" fill="#8b58c5"/><rect height="32" opacity=".2" rx="2.5" width="50" x="7" y="22"/><rect fill="#e4e4e4" height="20" rx="2.5" width="44" x="10" y="18"/><rect fill="#a674de" height="32" rx="2.5" width="50" x="7" y="23"/><path d="m9.5 10c-1.385 0-2.5 1.115-2.5 2.5v1c0-1.385 1.115-2.5 2.5-2.5h17c1.385 0 2.5 1.115 2.5 2.5v-1c0-1.385-1.115-2.5-2.5-2.5zm19.5 5v1h25.5c1.39 0 2.5 1.115 2.5 2.5v-1c0-1.385-1.11-2.5-2.5-2.5z" fill="#fff" opacity=".1"/><path d="m9.5 23c-1.385 0-2.5 1.115-2.5 2.5v1.541l48.223 27.842c1.028-.31 1.777-1.251 1.777-2.383v-2.592l-46.607-26.908zm11.285 0 36.215 20.908v-6l-25.824-14.908zm20.783 0 15.432 8.908v-6l-5.039-2.908zm-34.568 10.041v6l27.641 15.959h10.392zm0 12v6l6.855 3.959h10.393z" fill="#3a284d"/></svg>

<svg xmlns="http://www.w3.org/2000/svg" width="64" height="64" version="1.1">
 <rect style="opacity:0.2" width="50" height="32" x="7" y="24" rx="2.5" ry="2.5"/>
 <path style="fill:#8b58c5" d="M 7,44.5 C 7,45.885 8.115,47 9.5,47 H 54.5 C 55.885,47 57,45.885 57,44.5 V 17.5 C 57,16.115 55.885,15 54.5,15 H 29 V 12.5 C 29,11.115 27.885,10 26.5,10 H 9.5 C 8.115,10 7,11.115 7,12.5"/>
 <rect style="opacity:0.2" width="50" height="32" x="7" y="22" rx="2.5" ry="2.5"/>
 <rect style="fill:#dcdcdc" width="44" height="20" x="10" y="18" rx="2.5" ry="2.5"/>
 <rect style="fill:#a674de" width="50" height="32" x="7" y="23" rx="2.5" ry="2.5"/>
 <path style="opacity:0.1;fill:#ffffff" d="M 9.5,10 C 8.115,10 7,11.115 7,12.5 V 13.5 C 7,12.115 8.115,11 9.5,11 H 26.5 C 27.885,11 29,12.115 29,13.5 V 12.5 C 29,11.115 27.885,10 26.5,10 Z M 29,15 V 16 H 54.5 C 55.89,16 57,17.115 57,18.5 V 17.5 C 57,16.115 55.89,15 54.5,15 Z"/>
 <path style="fill:#3a284d" d="M 9.5 23 C 8.115 23 7 24.115 7 25.5 L 7 27.041 L 55.223 54.883 C 56.251 54.573 57 53.632 57 52.5 L 57 49.908 L 10.393 23 L 9.5 23 z M 20.785 23 L 57 43.908 L 57 37.908 L 31.176 23 L 20.785 23 z M 41.568 23 L 57 31.908 L 57 25.908 L 51.961 23 L 41.568 23 z M 7 33.041 L 7 39.041 L 34.641 55 L 45.033 55 L 7 33.041 z M 7 45.041 L 7 51.041 L 13.855 55 L 24.248 55 L 7 45.041 z"/>
</svg>
